src/svg/css3-alt.svg

<?xml version="1.0" encoding="utf-8"?>
<!-- Generator: Adobe Illustrator 16.2.1, SVG Export Plug-In . SVG Version: 6.00 Build 0)  -->
<!DOCTYPE svg PUBLIC "-//W3C//DTD SVG 1.1//EN" "http://www.w3.org/Graphics/SVG/1.1/DTD/svg11.dtd">
<svg version="1.1" id="Layer_1" xmlns="http://www.w3.org/2000/svg" xmlns:xlink="http://www.w3.org/1999/xlink" x="0px" y="0px"
	 width="512px" height="512px" viewBox="0 0 512 512" enable-background="new 0 0 512 512" xml:space="preserve">
<g>
	<path d="M354.676,366.898l-98.608,28.125l-98.458-28.248L150.864,289h48.253l3.433,39.563l53.586,15.163l0.132,0.273h0.034
		l53.467-14.852L315.381,265H203l-4-50h120.646l4.396-51H140l-4-49h240.58L354.676,366.898z"/>
	<path d="M64,32l34.936,403.301L255.769,480l157.245-44.705L448,32H64z M383.041,410.51l-127.262,36.187l-126.867-36.169L98.896,64
		H413.1L383.041,410.51z"/>
</g>
</svg>

<?xml version="1.0" encoding="UTF-8" standalone="no"?>
<!-- Generator: Adobe Illustrator 16.2.1, SVG Export Plug-In . SVG Version: 6.00 Build 0)  -->

<svg
   xmlns:dc="http://purl.org/dc/elements/1.1/"
   xmlns:cc="http://creativecommons.org/ns#"
   xmlns:rdf="http://www.w3.org/1999/02/22-rdf-syntax-ns#"
   xmlns:svg="http://www.w3.org/2000/svg"
   xmlns="http://www.w3.org/2000/svg"
   xmlns:sodipodi="http://sodipodi.sourceforge.net/DTD/sodipodi-0.dtd"
   xmlns:inkscape="http://www.inkscape.org/namespaces/inkscape"
   version="1.1"
   id="Layer_1"
   x="0px"
   y="0px"
   width="384"
   height="448"
   viewBox="0 0 384 448"
   enable-background="new 0 0 512 512"
   xml:space="preserve"
   inkscape:version="0.48.4 r9939"
   sodipodi:docname="css3-alt.svg"><metadata
     id="metadata3752"><rdf:RDF><cc:Work
         rdf:about=""><dc:format>image/svg+xml</dc:format><dc:type
           rdf:resource="http://purl.org/dc/dcmitype/StillImage" /></cc:Work></rdf:RDF></metadata><defs
     id="defs3750" /><sodipodi:namedview
     pagecolor="#ffffff"
     bordercolor="#666666"
     borderopacity="1"
     objecttolerance="10"
     gridtolerance="10"
     guidetolerance="10"
     inkscape:pageopacity="0"
     inkscape:pageshadow="2"
     inkscape:window-width="640"
     inkscape:window-height="480"
     id="namedview3748"
     showgrid="false"
     fit-margin-top="0"
     fit-margin-left="0"
     fit-margin-right="0"
     fit-margin-bottom="0"
     inkscape:zoom="0.4609375"
     inkscape:cx="192"
     inkscape:cy="224"
     inkscape:window-x="0"
     inkscape:window-y="0"
     inkscape:window-maximized="0"
     inkscape:current-layer="Layer_1" /><g
     id="g3742"
     transform="translate(-64,-32)"><path
       d="M 354.676,366.898 256.068,395.023 157.61,366.775 150.864,289 h 48.253 l 3.433,39.563 53.586,15.163 0.132,0.273 h 0.034 L 309.769,329.147 315.381,265 H 203 l -4,-50 h 120.646 l 4.396,-51 H 140 l -4,-49 h 240.58 l -21.904,251.898 z"
       id="path3744"
       inkscape:connector-curvature="0" /><path
       d="M 64,32 98.936,435.301 255.769,480 413.014,435.295 448,32 H 64 z M 383.041,410.51 255.779,446.697 128.912,410.528 98.896,64 H 413.1 l -30.059,346.51 z"
       id="path3746"
       inkscape:connector-curvature="0" /></g></svg>
